X:12
T:Garrett Barry's
M:6/8
L:1/8
K:G
A|DEF G3|AGA c2 A|dcA d2 e|fed cAG|EFF G3|AGA cde|dcA GEA|D3 D2:|: A|
dcA d2 e|fed efe|dcA c2 d|efe ecA|dAA d2 e|fed ege|dcA GEA|D3 D2:|
